src/lib/packages/icons/src/assets/line/arrow-up-left-square.svg

<svg width="24" height="24" viewBox="0 0 24 24" fill="none" xmlns="http://www.w3.org/2000/svg">
<path d="M17.625 2.25H6.375C3.715 2.25 2.25 3.715 2.25 6.375V17.625C2.25 20.285 3.715 21.75 6.375 21.75H17.625C20.285 21.75 21.75 20.285 21.75 17.625V6.375C21.75 3.715 20.285 2.25 17.625 2.25ZM20.25 17.625C20.25 19.465 19.465 20.25 17.625 20.25H6.375C4.535 20.25 3.75 19.465 3.75 17.625V6.375C3.75 4.535 4.535 3.75 6.375 3.75H17.625C19.465 3.75 20.25 4.535 20.25 6.375V17.625ZM15.53 14.47C15.823 14.763 15.823 15.238 15.53 15.531C15.384 15.677 15.192 15.751 15 15.751C14.808 15.751 14.616 15.678 14.47 15.531L9.75 10.811V13C9.75 13.414 9.414 13.75 9 13.75C8.586 13.75 8.25 13.414 8.25 13V9C8.25 8.902 8.27011 8.80489 8.30811 8.71289C8.38411 8.52989 8.53011 8.38388 8.71411 8.30688C8.80611 8.26888 8.90298 8.24902 9.00098 8.24902H13.001C13.415 8.24902 13.751 8.58502 13.751 8.99902C13.751 9.41302 13.415 9.74902 13.001 9.74902H10.812L15.53 14.47Z" fill="currentColor"/>
</svg>

<svg xmlns="http://www.w3.org/2000/svg" width="24" height="24" fill="none"><path fill="currentColor" d="M17.625 2.25H6.375c-2.66 0-4.125 1.465-4.125 4.125v11.25c0 2.66 1.465 4.125 4.125 4.125h11.25c2.66 0 4.125-1.465 4.125-4.125V6.375c0-2.66-1.465-4.125-4.125-4.125Zm2.625 15.375c0 1.84-.785 2.625-2.625 2.625H6.375c-1.84 0-2.625-.785-2.625-2.625V6.375c0-1.84.785-2.625 2.625-2.625h11.25c1.84 0 2.625.785 2.625 2.625v11.25Zm-4.72-3.155a.75.75 0 0 1-1.06 1.061l-4.72-4.72V13a.75.75 0 0 1-1.5 0V9a.751.751 0 0 1 .751-.751h4a.75.75 0 0 1 0 1.5h-2.189l4.718 4.721Z"/></svg>
